X:1
T:At the Tomb
T:At the Tomb
T:Knowles Shaw
T:Knowles Shaw, 1877
T:Public Domain Courtesy of the Cyber Hymnal™
T:Public Domain Courtesy of the Cyber Hymnal™
C:Knowles Shaw
Z:Public Domain
Z:Courtesy of the Cyber Hymnal™
%%score 1 ( 2 3 )
L:1/8
Q:1/4=103
M:3/4
K:Ab
V:1 treble 
V:2 bass 
V:3 bass 
V:1
 [CE][CE] | [Ec]4 [EA][Ec] | [FB]2 [DF]2 [FA]>[DF] | [CE]4 [EA]>[Ec] | [EB]4 [DE]>[DE] | %5
w: 1.~To the|tomb where they|laid Him, At the|dawn of the|day, Ma- ry|
w: 2.~By His|grave she stood|weep- ing, Filled with|sor- row and|gloom, But she|
 [Cc]4 [EA]>[Ec] | [FB]2 [DF]2 [DA]>[DF] | [CE]4 [DB]>[Ec] | [CA]4 [CE][CE] | %9
w: came with her|spic- es, There her|hom- age to|pay. She had|
w: gazed on the|an- gels, In the|midst of the|tomb. As she|
 ([DF]2 [DF]2) [DA]>[DF] | [DF]2 [CE]2 [CE][CE] | ([DF]2 [DF]2) [FA][DF] | [CE]4 [CE][CE] | %13
w: thought * there to|find Him, In the|cold, * si- lent|tomb, And her|
w: turned,~a * voice ad-|dressed her, “Why this|weep- * ing, tell|Me, pray?” “Oh,|
 [Ec]4 [EA]>[Ec] | [FB]2 [DF]2 [DA]>[DF] | [CE]4 [DB]>[Ec] | !fermata![CA]4 z2 | %17
w: heart filled with|an- guish, When she|knew He had|gone.|
w: where have you|laid Him? I will|take Him a-|way.”|
"^After 2nd verse, solo or duet" [CE]2 [CE]2 z2 | [CA]2 [CA]2 z [Ae] | .[Af]2 .[Ac]2 [Ac]>[Ae] | %20
w: “Ma- ry!|Ma- ry!” “Rab-|bo- ni, oh, my|
w: |||
 [Ae]2 [Ac]2!<(! [Ec][Ec]!<)! |!>(! [EB]4!>)! [Ec]>[DB] | [CA]4 ||"^Full Chorus" [Ae]>[Ae] | %24
w: Mas- ter!” He is|ris’n from the|dead.|Hal- le-|
w: ||||
 [Af]2 [Ae]2 [Ae][Ae] | .[Af]2 .[Ae]2 [Ed][Ec] | .[EB]2 .[EB]2 [EA][EB] | .[Ec]2 .[Ee]2 [Ae]>[Ae] | %28
w: lu- jah! hal- le-|lu- jah! We will|praise Him, We will|praise Him. Hal- le-|
w: ||||
 .[Af]2 .[Ae]2 [Ae]>[Ae] | .[Af]2 .[Ae]2 [Ec][Ec] | [EB]4 [Ec]>[DB] | [CA]4 |] %32
w: lu- jah! hal- le-|lu- jah! He is|ris’n from the|dead.|
w: ||||
V:2
 [A,,A,][A,,A,] | [A,,A,]4 [C,A,][A,,A,] | [D,A,]2 [D,A,]2 [D,A,]>[D,A,] | %3
 [A,,A,]4 [C,A,]>[A,,A,] | [E,G,]4 [E,G,]>[E,G,] | [A,,A,]4 [C,A,]>[A,,A,] | %6
 [D,A,]2 [D,A,]2 [D,F,]>[D,A,] | [E,A,]4 [E,G,]>[E,G,] | [A,,A,]4 [A,,A,][A,,A,] | %9
 ([D,A,]2 [D,A,]2) [D,F,]>[D,A,] | [A,,A,]2 [A,,A,]2 [A,,A,][A,,A,] | %11
 ([D,A,]2 [D,A,]2) [D,A,][D,A,] | [A,,A,]4 [A,,A,][A,,A,] | [A,,A,]4 [C,A,]>[A,,A,] | %14
 [D,A,]2 [D,A,]2 [D,F,]>[D,A,] | [E,A,]4 [E,G,]>[E,G,] | !fermata![A,,A,]4 z2 | z6 | z4 z [A,C] | %19
 .[A,C]2 .[A,E]2 [A,E]>[A,C] | [A,C]2 [A,E]2 [A,,A,][C,A,] | [E,G,]4 [E,A,]>[E,G,] | [A,,A,]4 || %23
 [A,C]>[A,C] | [A,D]2 [A,C]2 [A,C][A,C] | .[A,D]2 .[A,C]2 A,[A,,A,] | %26
 .[E,G,]2 .[E,G,]2 [E,F,][E,G,] | A,2 .[A,C]2 [A,C]>[A,C] | .[A,D]2 .[A,C]2 [A,C]>[A,C] | %29
 .[A,D]2 .[A,C]2 [A,,A,][C,A,] | [E,G,]4 [E,A,]>[E,G,] | [A,,A,]4 |] %32
V:3
 x2 | x6 | x6 | x6 | x6 | x6 | x6 | x6 | x6 | x6 | x6 | x6 | x6 | x6 | x6 | x6 | x6 | x6 | x6 | %19
 x6 | x6 | x6 | x4 || x2 | x6 | x4 A, x | x6 | .A,2 x4 | x6 | x6 | x6 | x4 |] %32

